X: 16138
T: Green Grow The Rushes
R: barndance
M: 4/4
K: Gmajor
M:2/4
|:G>G GA|BG GB|Ae ed|eA AB|
cB ce|d/c/B/A/ GB|Ac BA|1 GE E2:|2 BG G2||
|:g>g gf|gd dg|ea ag|ae ef|
ga ge|d/c/B/A/ GB|Ac BA|1 GE E2:|2 BG G2||

